icons/zoom-plus-filled.svg

<svg width="24" height="24" viewBox="0 0 24 24" fill="none" xmlns="http://www.w3.org/2000/svg">
<path fill-rule="evenodd" clip-rule="evenodd" d="M14.605 13.194L21.605 20.192C21.7871 20.3806 21.8879 20.6332 21.8857 20.8954C21.8834 21.1576 21.7782 21.4084 21.5928 21.5938C21.4074 21.7792 21.1566 21.8844 20.8944 21.8867C20.6322 21.889 20.3796 21.7882 20.191 21.606H20.19L13.193 14.606C11.7758 15.6662 10.0096 16.1502 8.2499 15.9606C6.49021 15.771 4.86767 14.9218 3.70887 13.584C2.55006 12.2463 1.94102 10.5192 2.00433 8.75045C2.06765 6.98171 2.79861 5.3026 4.0501 4.05111C5.3016 2.79962 6.9807 2.06865 8.74944 2.00534C10.5182 1.94203 12.2453 2.55107 13.583 3.70987C14.9208 4.86868 15.7699 6.49122 15.9596 8.25091C16.1492 10.0106 15.6652 11.7768 14.605 13.194ZM9.99999 7C10.003 6.333 9.66999 6 9.00199 6C8.33399 6 7.99999 6.333 7.99999 7V8H6.99999C6.33299 7.995 5.99999 8.327 5.99999 8.993C5.99999 9.66 6.33299 9.993 6.99999 9.993L7.99399 10.017L7.99999 11C7.99899 11.667 8.33199 12 8.99999 12C9.66799 12 10.001 11.667 9.99999 11V10L11 9.993C11.667 9.993 12 9.663 12 9C12 8.338 11.667 8.005 11 8H9.99999V7Z" fill="#3A3A47"/>
</svg>

<svg xmlns="http://www.w3.org/2000/svg" width="24" height="24" viewBox="0 0 24 24">
    <path fill="#3A3A47" fill-rule="evenodd" d="M9 2a7 7 0 0 1 5.606 11.193l6.998 7a1 1 0 0 1-1.32 1.497l-.094-.084-6.997-7A7 7 0 1 1 9 2zm.002 4C8.334 6 8 6.333 8 7v1H7c-.667-.005-1 .327-1 .993 0 .667.333 1 1 1l.994.024L8 11c-.001.667.332 1 1 1 .668 0 1.001-.333 1-1v-1l1-.007c.667 0 1-.33 1-.993 0-.662-.333-.995-1-1h-1V7c.003-.667-.33-1-.998-1z"/>
</svg>
